X:1
T:G minor, G Major Jacob French, 1789
T:Paraphrases of Lamentations 1 and Luke 2
T:Lamentation for Jerusalem
T:Transcribed from  The New American Melody, 1789.
%%score [ 1 2 3 4 ]
L:1/8
Q:1/4=120
M:2/2
K:Bb
V:1 treble nm="Tr." snm="Tr."
V:2 treble nm="C." snm="C."
V:3 treble-8 nm="T." snm="T."
V:4 bass nm="B." snm="B."
V:1
 z8 | z8 | %2
 z4"^Why            dost          thou    sit           so   –    li – ta–ry,    O    Je  – ru – sa – lem,  thou that was so" A4 | %3
 (B3 c) dc B2 | A3 B AAFF | G3 G G4 | B2 A2 G2 G2 | ^F2 F2 F4 | d3 d B2 cB | A A3 c2 c2 | d3 d d4 | %11
 c3 A B4 | cd ec dc BA | G4 G4 | z8 | G6 z2 | G4 z4 | z8 | D8- | D4 z4 | z8 | F8- | F8 | B6 z2 | %24
 A4 B2 d2 | (c2 B2) A4 | G8 | z4 B4 | A8 | z4 G4 | ^F4 G4 |[M:3/2] (G3 A B2 cd e2 c2 | d12) | %33
 (B6 A2) G2 G2 | ^F8 GB Ac |[M:2/2] B4 d4 | (d2 c6) | (B2 d4) d2 | d8 |[M:3/2] z4 z4 B4 | %40
 d8 (3(d2 c2 B2) | A8 A4 | (B3 c d2 B2) A4 |[M:2/2] (Bcdc B2) A2 | A2 G2 ^F2 G2 | A4 c2 c2 | %46
 d4 d2 d2 | (B2 c2) A2 A2 | G4 G4 | z4"^A  – las,   a  – las, how" G4 | B6 B2 | A4 d4 | %52
"^do thy children mourn, _____________________" e2 d2 c2 B2 | A8- | A8- | (A8 | B4) d3 c |: %57
 B2 B2 B2 d2 | cB AB c2 c2 | BA GA B2 c2 | c2 B2 A2 A2 |1[M:3/2] (B3 A G4) d3 c :|2 %62
[M:2/2] (B3 A G4) || z4 (B3 c) | dc Bc de fe | d2 dc B2 c2 | d3 d d2 d2 | c2 B2 A2 G2 | %68
 dc B2 A3 A | A2 A2 B3 B | B4 d4 | c4 B2 A2 | B3 A G4 | %73
 z4"^O       weep,         weep,  weep, for the judgments  of" B4 | A6 z2 | z4 G4 | ^F4 d3 c | %77
 B4 cA B>c |"^God               are     up     –    on them.         Hark!     Hark!" d4 dc BA | %79
 G4 G4 ||[K:G] G6 z2 | B8 |[M:6/8][Q:1/4=130] z2 z d2 c | B2 e d2 d | B3 B2 A | B2 B A2 A | %86
 A3- A3 |[M:2/2][Q:1/4=120] B4 A4 | G6 z2 | c4 B2 A2 | B4 d2 B2 | (c2 B2) A2 GB | A4 B2 d2 | %93
 B2 A2 B2 e2 | d8 | d8 | z4 B4 | B8 | z4 d4 | d4 (d2 c2) | B4 e4 | (e2 d4) ^c2 | d4 d4 | %103
 (BcBc dedc | B2) AF G2 A2 | B4 A2 GA | (B>c B2) A2 A2 | A4 B2 [Bd]2 | c2 c2 B2 A2 | B8 | %110
 B2 B2 d2 d2 | c8 | (d B3) B4 | c2 d2 (e2 ^c2) | B6 [Bd]2 | A2 B2 c4 | d6 c2 | B2 A2 G4 | %118
 A4 A2 B2 | %119
"^reigneth in truth and righteousness,  And         bles–sed  be  the     name      of    the  Lord,  And         bles–sed  be  the  name of the  Lord, And" B4 A2 A2 | %120
 B2 c2 d3 d | e4 f4 |[M:3/2] g4 g4 f2 e2 |[M:2/2] d4 d2 ^c2 | d4 (d2 c2) |[M:3/2] B4 B4 c2 c2 | %126
[M:2/2] B4 A2 A2 | B6 B2 | %128
"^bles–sed  be  the  name  of  the Lord ____                      And     bles–sed   be   the    name   of  the   Lord." d2 e2 e2 e2 | %129
 d2 dd d4- | d8 | z4 B4 | d B3 c2 c2 | d4 d2 d2 | d8 |] %135
V:2
 z8 | %1
 z4"^Why       dost     thou  sit         so  –  li – ta – ry,                O                               Je      –    ru – sa – lem,   thou that was so" D4 | %2
 E4 D2 D2 | D3 E D D3 | D6 D2 | D3 D D4 | G2 FE D2 E2 | %7
"^peopled? Thou art become as   a      widow, which was yesterday as  a   new–mar – ried   wife    in       splendor.         Hark! hark, hear thy" D3 D D4 | %8
 F3 F E2 EE | D D3 E2 C2 | F3 F F4 | F3 F F4 | F2 E2 D2 D2 | D4 D4 | z8 | D6 z2 | D4 B,2 D2 | %17
"^chil    –   dren   weep,        hear thy chil–dren  weep, ____   Hark!      hark, heat thy chil – dren  weep,         they  weep,     they weep, they" (C2 B,2) A,4 | %18
 B,8- | B,4 D2 F2 | (E2 D2) C4 | D8- | D8 | D6 z2 | D4 D2 D2 | E4 D4 | D8 | z4 D4 | D8 | z4 D4 | %30
 D4 D4 |[M:3/2]"^weep, _________________  sore" (D8 G4 | ^F12) | D8"^in  the  night," C2 B,2 | %34
 A,8"^and  their     cries, their cries     pierce   the  heav'ns.             Be–hold,  be –" D2 D2 | %35
[M:2/2] F4 G4 | A8 | (G2 B2) A4 | B8 |[M:3/2] z4 z4 G4 | G8 F4 | %41
"^–hold, the  tears ______ run       trin    –        –    kling down their cheeks like great drops of water, like great drops of water.       A  – las,    a  – las," F8 F4 | %42
 (F4 G2 DE) F4 |[M:2/2] (F3 E D2) D2 | D2 D2 D2 D2 | F4 F2 F2 | F4 F2 F2 | E4 D2 D2 | D4 D4 | %49
 z4 D4 | D6 D2 | D4 z4 | z8 | %53
 z4"^How  do thy children mourn, ___  For the hand of God, the  hand  of   God,  the   hand of God hath touch-ed them in" D4 | %54
 C2 C2 C2 C2 | D8- | D4 G3 F |: F2 F2 F2 F2 | F2 F2 F2 F2 | D2 D2 D2 D2 | E2 E2 D2 D2 |1 %61
[M:3/2]"^an    –   ger.   For the            an   –   ger.           How        are     thy    migh – ty      men be – come thine en–e–mies, thy migh–ty  men  be –" D4 D4 G3 F :|2 %62
[M:2/2] D4 D4 || z4 D4 | G2 G2 A2 A2 | G2 FE DE F2 | F3 F F2 F2 | F2 F2 FE DE | %68
"^–come thine en–e–mies, thine  en–e–mies;  none        are  left  to  comfort them.          O    weep,       weep,       weep,                      for    the" FE DE F3 F | %69
 F2 F2 F3 F | F4 F4 | E4 D2 D2 | D3 D D4 | z4 D4 | D8 | D8 | D8 | z4 FE D2 | %78
"^judgments of God  are   up –on  them.         Hark!     Hark!                Hark, and lo, a  pleasant  voice  e – cho – ing from  yonder   skies," D2 DD D2 DD | %79
 D4 D4 ||[K:G] D6 z2 | G8 |[M:6/8] z2 z G2 E | D2 G F2 F | E3 EGA | G2 G E2 E | F3- F3 | %87
[M:2/2]"^say–ing, Peace,      peace  be  on  earth and good will,  and good will, and good will, good will towards men.            Be – hold,           Be –" G4 F4 | %88
 E6 z2 | E4 D2 D2 | D4 G2 D2 | E4 D2 D2 | E4 G2 G2 | D2 D2 G2 G2 | (G2 F6) | G8 | z4 D4 | E8 | %98
 z4 G4 | %99
"^–hold  and   see     thy     guar  – dian  an – gel     fly      –        –        –        –    ing through the sky   on  the      wings ____ of  the wind, on the" F4 E4 | %100
 (F2 G2) A4 | D6 G2 | F4 F4 | (D2 D2 G2 G2 | G2) A2 G2 D2 | D4 D2 G2 | G>AGF D2 E2 | F4 G2 D2 | %108
"^Cherubim of  heav'n,  crying with a  loud    voice,       My  chil–dren,  fear     not,      My   chil–dren,  fear  not;   thy  Savior  yet        li–veth and" E2 E2 D2 D2 | %109
 D8 | D2 G2 G2 G2 | G8 | (G3 A) D4 | G2 G2 (A2 F2) | G6 GF | E2 E2 (F2 G2) | F6 A2 | G2 D2 E4 | %118
 F4 F2 G2 | %119
"^reigneth in truth and righteousness,  And         bles–sed  be  the     name      of    the  Lord,  And         bles–sed  be  the  name of the  Lord, And" D4 D2 E2 | %120
 F2 F2 G3 D | G4 D4 |[M:3/2] E4 E4 D2 G2 |[M:2/2] (F3 E) D2 G2 | F4 G4 |[M:3/2] F4 F4 A2 A2 | %126
[M:2/2] D4 D2 D2 | D6 G2 | %128
"^bles–sed  be  the  name  of  the Lord ____                      And     bles–sed   be   the    name   of  the   Lord." G2 G2 G2 G2 | %129
 F2 FF G4- | G8 | z4 G4 | G D3 E2 F2 | G4 F2 F2 | G8 |] %135
V:3
 z8 | z8 | %2
"^Why       dost            thou  sit     so      –     li   –   ta – ry,      O             Je      –    ru – sa – lem,  thou that was so" G4 ^F4 | %3
 D2 C2 D3 D | D D3 FG A2 | G3 G G4 | d2 c2 B2 G>B | A3 A A4 | B3 A G2 AA | F D3 G2 A2 | B3 B B4 | %11
 c3 c d4 | c2 B2 A2 ^F2 | G4 G4 | z8 | G6 z2 | G4 G2 B2 | (A2 G2) ^F4 | G8- | G4 B2 d2 | %20
 (c2 B2) A4 | B8- | B8 | G6 z2 | ^F4 G2 B2 | (A2 G2) ^F4 | G8 | z4 G4 | ^F8 | z4 B4 | A4 B4 | %31
[M:3/2] (d3 c B3 A G3 B | A12) | (G4 ^F4) E2 E2 | D8 B2 c2 |[M:2/2] d4 B4 | f8 | (d2 g2) ^f4 | g8 | %39
[M:3/2] z4 z4 d4 | B8 d4 | c8 c4 | (d3 c B4) c4 |[M:2/2] (dcBA G2) ^F2 | G2 B2 A2 B2 | c4 A2 A2 | %46
 B4 B2 A2 | (G2 A2) ^F2 F2 | G4 G4 | z4"^A  – las,   a  – las, how" D4 | G6 G2 | ^F4 B4 | %52
"^do thy children mourn, _____________________" c2 B2 A2 G2 | F8- | F8- | F8- | F4 B3 c |: %57
 d2 d2 d2 B2 | c2 c2 c2 A2 | d2 B2 G2 B2 | A2 G2 ^F2 F2 |1[M:3/2] G4 G4 B3 c :|2[M:2/2] G4 G4 || %63
 z4 (G3 A) | Bc de fe dc | B2 A2 A2 A2 | B3 B c2 d2 | e2 d2 c2 B2 | A2 B2 c3 c | c2 c2 d3 d | %70
 d4 (B3 A) | G4 ^F2 F2 | G3 G G4 | %73
 z4"^O       weep,         weep,  weep, for the judgments  of" G4 | ^F6 z2 | z4 B4 | A4 B3 c | %77
 d4 c2 B2 | %78
"^God               are     up     –    on them.         Hark!     Hark!" (A2 G2) ^F2 F2 | G4 G4 || %80
[K:G] G6 z2 | d8 |[M:6/8] z2 z B2 c | d2 c B2 A | A2 e3 e | e2 e ^c2 c | d3- d3 |[M:2/2] d4 d4 | %88
 B6 z2 | A4 G2 F2 | G4 B2 d2 | G4 A2 B2 | c4 d2 B2 | G2 F2 G2 c2 | (B2 A6) | G8 | z4 G4 | G8 | %98
 z4 B4 | A4 (B2 c2) | d4 c4 | B4 (A2 G2) | A4 A4 | (GAGA BcBc | d2) d2 e2 f2 | g4 f2 e2 | %106
 (d>e d2) ^c2 c2 | d4 e2 f2 | g2 a2 f2 f2 | g8 | g2 d2 B2 G2 | e8 | d4 g4 | e2 d2 ^c4 | d6 B2 | %115
 c2 B2 (A2 G2) | A6 F2 | G2 A2 (B2 c2) | d4 d2 d2 | %119
"^reigneth in truth and righteousness,  And         bles–sed  be  the     name      of    the  Lord,  And         bles–sed  be  the  name of the  Lord, The" g4 f2 e2 | %120
 d2 c2 B3 A | G4 (A2 B2) |[M:3/2] c4 c4 d2 c2 |[M:2/2] B4 A2 A2 | A4 (B2 c2) |[M:3/2] d4 d4 e2 f2 | %126
[M:2/2] g4 f2 f2 | g6 e2 | %128
"^name ________   of    the        Lord ____                      And     bles–sed   be   the    name   of  the   Lord." (B2 G2 c2 B2) | %129
 A2 A2 G4- | G8 | z4 d4 | B G3 c2 c2 | B4 A2 A2 | G8 |] %135
V:4
"^Why dost thou sit so – li – ta – ry,  O        Je  –  ru  –  sa – lem,                  O                               Je       –      ru – sa – lem,  thou that was so" G,,4 (G,,2 A,,2) | %1
 B,,2 C,2 D,2 D,2 | C, C,3 D,3 C, | B,,3 A,, G,,4 | D,6 D,2 | G,,3 G,, G,,4 | G,,2 A,,2 B,,2 C,2 | %7
 D,3 D, D,4 | B,,3 D, E,2 C,C, | D, D,3 C,2 C,2 | B,,3 B,, B,,4 | F,3 F, [B,,B,]4 | %12
 [A,,A,]2 [G,,G,]2 D,2 D,2 | G,,4 G,,4 | z8 | G,,6 z2 | G,,4 z4 | z8 | G,,8- | G,,4 z4 | z8 | %21
 B,,8- | B,,8 | G,,6 z2 | D,4 [G,,G,]2 [G,,G,]2 | C,4 D,4 | G,,8 | z4 G,,4 | D,8 | z4 [G,,G,]4 | %30
 D,4 G,4 |[M:3/2] (B,3 A, G,3 F, E,4 | D,12) | (G,,3 A,, B,,4) C,2 C,2 | D,8 [G,,G,]2 [A,,A,]2 | %35
[M:2/2] [B,,B,]4 [G,,G,]4 | [F,,F,]8 | [G,,G,]4 D,4 | [G,,G,]8 |[M:3/2] z4 z4 [G,,G,]4 | %40
 [G,,G,]8 (D,3 E,) | F,8 F,4 | ([B,,B,]3 [A,,A,] [G,,G,]4) [F,,F,]4 |[M:2/2] (B,,3 C, D,2) D,2 | %44
 G,,2 G,,2 D,2 B,,2 | F,4 F,,2 F,,2 | B,,4 B,,2 D,2 | (E,2 C,2) D,2 D,2 | G,,4 G,,4 | %49
 z4"^A  – las,    a  – las," G,,4 | G,,6 G,,2 | D,4 z4 | z8 | %53
 z4"^How  do thy children mourn, ___" D,4 | F,2 F,2 F,,2 F,,2 | B,,8- | B,,4 G,,3 A,, |: %57
 B,,2 B,,2 B,,2 B,,2 | [F,,F,]2 [F,,F,]2 [F,,F,]2 [F,,F,]2 | [G,,G,]2 [G,,G,]2 G,,2 G,,2 | %60
 C,2 C,2 D,2 D,2 |1[M:3/2] G,,4 G,,4 G,,3 A,, :|2[M:2/2] G,,4 G,,4 || z4 [G,,G,]4 | %64
 [G,,G,]2 [G,,G,]2 D,2 D,2 | [G,,G,]2 D,2 [G,,G,]2 [F,,F,]2 | B,,3 B,, B,,2 B,,2 | %67
 C,2 D,E, F,2 G,2 | D,2 G,2 [F,,F,]3 [F,,F,] | [F,,F,]2 [F,,F,]2 [B,,B,]3 [B,,B,] | [B,,B,]4 B,,4 | %71
 C,4 D,2 D,2 | G,,3 G,, G,,4 | z4"^O  weep,  O  weep,  O  weep, for the judgments  of" G,,4 | %74
 D,4 D,4 | G,,6 G,,2 | D,4 [G,,G,]3 [A,,A,] | [B,,B,]4 [A,,A,]2 [G,,G,]2 | D,4 D,2 D,2 | %79
 G,,4 G,,4 ||[K:G] G,,6 z2 | [G,,G,]8 |[M:6/8] z2 z G,,2 A,, | B,,2 C, D,2 D, | E,3 G,2 G, | %85
 E,2 E, [A,,A,]2 [B,,B,] | D,3- D,3 |[M:2/2] [G,,G,]4 D,4 | E,6 z2 | A,,4 B,,C, D,2 | %90
 G,,4 G,,2 G,,2 | C,4 D,2 G,2 | A,4 G,2 G,2 | G,2 D,2 E,2 C,2 | D,8 | G,,8 | z4 G,4 | E,8 | %98
 z4 [G,,G,]4 | D,4 ([G,,G,]2 [A,,A,]2) | [B,,B,]4 [A,,A,]4 | [G,,G,]4 ([F,,F,]2 [E,,E,]2) | %102
 [D,,D,]4 [D,,D,]4 | [G,,G,]8- | [G,,G,]2 F,2 E,2 D,2 | [G,,G,]4 D,2 E,F, | G,4 A,2 A,2 | %107
 D,4 [G,,G,]2 [B,,B,]2 | [C,C]2 [A,,A,]2 [D,D]2 D,2 | [G,,G,]8 | %110
 [G,,G,]2 [G,,G,]2 [G,,G,]2 [B,,B,]2 | [C,C]8 | [B,,B,]3 [A,,A,] [G,,G,]4 | %113
 [C,C]2 [B,,B,]2 [A,,A,]4 | [G,,G,]6 [G,,G,]2 | [A,,A,]2 [G,,G,]2 (F,2 E,2) | D,6 D,2 | %117
 G,2 F,2 E,4 | D,4 D,2 [G,,G,]2 | [G,,G,]4 [D,D]2 [C,C]2 | [B,,B,]2 [A,,A,]2 G,3 F, | E,4 D,4 | %122
[M:3/2] C,4 C,4 B,,2 C,2 |[M:2/2] D,4 D,2 E,2 | %124
 D,4"^And         bles–sed  be  the  name of the  Lord, The" ([G,,G,]2 [A,,A,]2) | %125
[M:3/2] [B,,B,]4 [B,,B,]4 [B,,B,]2 [A,,A,]2 |[M:2/2] [G,,G,]4 D,2 D,2 | [G,,G,]6 [G,,G,]2 | %128
"^name ________   of    the        Lord ____                      And     bles–sed   be   the    name   of  the   Lord." (G,2 E,2 C,4) | %129
 D,2 D,2 G,,4- | G,,8 | z4 [G,,G,]4 | [G,,G,] [B,,B,]3 [A,,A,]2 [A,,A,]2 | [G,,G,]4 D,2 D,2 | %134
 G,,8 |] %135

